blockchains/ethereum/assets/0xB50721BCf8d664c30412Cfbc6cf7a15145234ad1/logo.svg

<svg fill="none" height="250" viewBox="0 0 250 250" width="250" xmlns="http://www.w3.org/2000/svg"><path d="m28.7854 82.2644v92.7396c0 5.919 3.1339 11.374 8.2409 14.334l80.2617 46.312c5.107 2.96 11.433 2.96 16.54 0l80.262-46.312c5.107-2.96 8.241-8.415 8.241-14.334v-92.7396c0-5.9195-3.134-11.3748-8.241-14.3345l-80.262-46.3116c-5.107-2.9598-11.433-2.9598-16.54 0l-80.2617 46.3116c-5.049 2.9597-8.2409 8.473-8.2409 14.3345z" fill="#213147"/><path d="m143.171 146.618-11.491 31.339c-.348.87-.348 1.857 0 2.728l19.674 54.03 22.749-13.174-27.276-74.923c-.639-1.741-3.076-1.741-3.656 0z" fill="#12aaff"/><path d="m166.038 93.8058c-.638-1.7411-3.017-1.7411-3.656 0l-11.433 31.3382c-.348.871-.348 1.858 0 2.728l32.268 88.445 22.749-13.174z" fill="#12aaff"/><path d="m125.586 25.0388c.58 0 1.102.116 1.625.4642l86.877 50.1419c1.045.5804 1.625 1.625 1.625 2.7857v100.2834c0 1.161-.638 2.206-1.625 2.786l-86.877 50.2c-.465.29-1.045.464-1.625.464-.581 0-1.103-.116-1.625-.464l-86.82-50.142c-1.0447-.58-1.625-1.625-1.625-2.786v-100.3414c0-1.1607.6384-2.2053 1.625-2.7857l86.878-50.1419c.464-.2901 1.044-.4642 1.567-.4642zm0-14.6247c-3.076 0-6.21.8125-8.938 2.4374l-86.8774 50.1419c-5.5133 3.1919-8.9373 9.1114-8.9373 15.4952v100.2834c0 6.384 3.424 12.304 8.9373 15.554l86.8774 50.141c2.786 1.625 5.862 2.438 8.938 2.438 3.075 0 6.209-.813 8.937-2.438l86.878-50.141c5.571-3.192 8.937-9.112 8.937-15.554v-100.3414c0-6.3838-3.424-12.3033-8.937-15.5533l-86.82-50.0258c-2.786-1.6249-5.92-2.4374-8.995-2.4374z" fill="#9dcced"/><path d="m68.1914 216.434 7.9507-21.879 16.0756 13.348-14.9729 13.754z" fill="#213147"/><g fill="#fff"><path d="m118.272 71.2891h-21.9952c-1.625 0-3.1339 1.0446-3.6562 2.5535l-47.1821 129.4174 22.7495 13.174 51.999-142.5334c.406-1.2767-.522-2.6115-1.915-2.6115z"/><path d="m156.81 71.2891h-21.995c-1.625 0-3.134 1.0446-3.657 2.5535l-53.9136 147.8144 22.7495 13.173 58.6731-160.8714c.464-1.3348-.464-2.6695-1.857-2.6695z"/></g></svg>

<svg width="250" height="250" viewBox="0 0 250 250" fill="none" xmlns="http://www.w3.org/2000/svg">
<path d="M28.7854 82.2644V175.004C28.7854 180.923 31.9193 186.378 37.0263 189.338L117.288 235.65C122.395 238.61 128.721 238.61 133.828 235.65L214.09 189.338C219.197 186.378 222.331 180.923 222.331 175.004V82.2644C222.331 76.3449 219.197 70.8896 214.09 67.9299L133.828 21.6183C128.721 18.6585 122.395 18.6585 117.288 21.6183L37.0263 67.9299C31.9773 70.8896 28.7854 76.4029 28.7854 82.2644Z" fill="#213147"/>
<path d="M143.171 146.618L131.68 177.957C131.332 178.827 131.332 179.814 131.68 180.685L151.354 234.715L174.103 221.541L146.827 146.618C146.188 144.877 143.751 144.877 143.171 146.618Z" fill="#12AAFF"/>
<path d="M166.038 93.8058C165.4 92.0647 163.021 92.0647 162.382 93.8058L150.949 125.144C150.601 126.015 150.601 127.002 150.949 127.872L183.217 216.317L205.966 203.143L166.038 93.8058Z" fill="#12AAFF"/>
<path d="M125.586 25.0388C126.166 25.0388 126.688 25.1548 127.211 25.503L214.088 75.6449C215.133 76.2253 215.713 77.2699 215.713 78.4306V178.714C215.713 179.875 215.075 180.92 214.088 181.5L127.211 231.7C126.746 231.99 126.166 232.164 125.586 232.164C125.005 232.164 124.483 232.048 123.961 231.7L37.141 181.558C36.0963 180.978 35.516 179.933 35.516 178.772V78.4306C35.516 77.2699 36.1544 76.2253 37.141 75.6449L124.019 25.503C124.483 25.2129 125.063 25.0388 125.586 25.0388ZM125.586 10.4141C122.51 10.4141 119.376 11.2266 116.648 12.8515L29.7706 62.9934C24.2573 66.1853 20.8333 72.1048 20.8333 78.4886V178.772C20.8333 185.156 24.2573 191.076 29.7706 194.326L116.648 244.467C119.434 246.092 122.51 246.905 125.586 246.905C128.661 246.905 131.795 246.092 134.523 244.467L221.401 194.326C226.972 191.134 230.338 185.214 230.338 178.772V78.4306C230.338 72.0468 226.914 66.1273 221.401 62.8773L134.581 12.8515C131.795 11.2266 128.661 10.4141 125.586 10.4141Z" fill="#9DCCED"/>
<path d="M68.1914 216.434L76.1421 194.555L92.2177 207.903L77.2448 221.657L68.1914 216.434Z" fill="#213147"/>
<path d="M118.272 71.2891H96.2768C94.6518 71.2891 93.1429 72.3337 92.6206 73.8426L45.4385 203.26L68.188 216.434L120.187 73.9006C120.593 72.6239 119.665 71.2891 118.272 71.2891Z" fill="white"/>
<path d="M156.81 71.2891H134.815C133.19 71.2891 131.681 72.3337 131.158 73.8426L77.2444 221.657L99.9939 234.83L158.667 73.9586C159.131 72.6238 158.203 71.2891 156.81 71.2891Z" fill="white"/>
</svg>
